X:4
T:St Alban's Assembly. WR1776.04
B:Wm.Randall CDs 1776
Z:vmp.Steve Mansfield 2015
M:6/8
L:1/8
W:Foot it to your Part: & turn the 2 Gent: foot it & turn
W: & the lady's turn all at the same time gallop down 1 Cu.
W:up again cast off and turn your Partner
N:Third word of title partly illegible in scan of Mss, but seems to be Assembly
Q:3/8=90
K:F
f2a gec | d2f cBA | BAB AGF | E3 C3 |
f2a gec | d2f cBA | GBA GFE | F3 F3 :|
|: FAc cAF | EGc c=Bc | def gab | e3 c3 |
f2a gec | d2f cBA | GBA GFE | F3 F3 :|

